X:351
T:Lucky in Love
R:reel
D:John McKenna
D:Conal O'Grada: Top of Coom
Z:id:hn-reel-351
M:C|
K:G
~g3d BGGA|BGdB cA~A2|~g3d ~B3d|1 cAdc BG~G2:|2 cAdc BGGA||
|:(3BAG dG eGdG|BGdB cA~A2|1 BGdG eGdB|cedc BGGA:|2 GABd e2ag|fdef gaba||
